airplane-edit.svg

<svg fill="currentColor" viewBox="0 0 24 24"><path d="M11.55 11.63 7.66 15.5 8 18l-1.05 1.06-1.77-3.19L2 14.11l1.06-1.06 2.48.35 3.89-3.9L2 5.62l1.41-1.41 9.2 2.12 3.89-3.89a1.49 1.49 0 0 1 2.12 0c.58.59.58 1.56 0 2.12l-3.89 3.89 1.3 5.65-2.09 2.09zM13 19.96V22h2.04l6.13-6.12-2.04-2.05zm9.85-6.49-1.32-1.32c-.2-.2-.53-.2-.72 0l-.98.98 2.04 2.04.98-.98c.2-.19.2-.52 0-.72"/></svg>

<svg  viewBox="0 0 24 24" fill="currentColor"><path  d="M11.55 11.63L7.66 15.5L8 18L6.95 19.06L5.18 15.87L2 14.11L3.06 13.05L5.54 13.4L9.43 9.5L2 5.62L3.41 4.21L12.61 6.33L16.5 2.44C17.08 1.85 18.03 1.85 18.62 2.44C19.2 3.03 19.2 4 18.62 4.56L14.73 8.45L16.03 14.1L13.94 16.19L11.55 11.63M13 19.96V22H15.04L21.17 15.88L19.13 13.83L13 19.96M22.85 13.47L21.53 12.15C21.33 11.95 21 11.95 20.81 12.15L19.83 13.13L21.87 15.17L22.85 14.19C23.05 14 23.05 13.67 22.85 13.47Z"/></svg>
